Lightroom Web Color/Bright Plus.lrtemplate
s = {
	id = "99FE60BB-9728-49FB-8117-5E341B5C6264",
	internalName = "Bright Plus",
	title = "Bright Plus",
	type = "Develop",
	value = {
		settings = {
			Blacks2012 = -50,
			Clarity2012 = 15,
			Contrast2012 = 40,
			ConvertToGrayscale = false,
			Dehaze = 0,
			EnableColorAdjustments = true,
			EnableEffects = true,
			Exposure2012 = 1.15,
			GrainAmount = 0,
			GrainFrequency = 50,
			GrainSize = 50,
			Highlights2012 = -20,
			HueAdjustmentAqua = 0,
			HueAdjustmentBlue = 0,
			HueAdjustmentGreen = 18,
			HueAdjustmentMagenta = 5,
			HueAdjustmentOrange = -2,
			HueAdjustmentPurple = 0,
			HueAdjustmentRed = 8,
			HueAdjustmentYellow = 0,
			LuminanceAdjustmentAqua = 0,
			LuminanceAdjustmentBlue = -10,
			LuminanceAdjustmentGreen = -15,
			LuminanceAdjustmentMagenta = -15,
			LuminanceAdjustmentOrange = 0,
			LuminanceAdjustmentPurple = -10,
			LuminanceAdjustmentRed = -15,
			LuminanceAdjustmentYellow = 0,
			PostCropVignetteAmount = 0,
			PostCropVignetteFeather = 50,
			PostCropVignetteHighlightContrast = 0,
			PostCropVignetteMidpoint = 50,
			PostCropVignetteRoundness = 0,
			PostCropVignetteStyle = 1,
			ProcessVersion = "6.7",
			Saturation = 15,
			SaturationAdjustmentAqua = -5,
			SaturationAdjustmentBlue = 0,
			SaturationAdjustmentGreen = -30,
			SaturationAdjustmentMagenta = -20,
			SaturationAdjustmentOrange = -5,
			SaturationAdjustmentPurple = -10,
			SaturationAdjustmentRed = -10,
			SaturationAdjustmentYellow = 0,
			Shadows2012 = 30,
			Vibrance = 40,
			Whites2012 = 15,
		},
		uuid = "2FD6D627-F17D-470B-8A88-9C8D10C79D01",
	},
	version = 0,
}
