Lightroom Web Color/Warm Lift.lrtemplate
s = {
	id = "EF0F91BF-A8FE-473C-8128-958B2D7690CB",
	internalName = "Warm Lift",
	title = "Warm Lift",
	type = "Develop",
	value = {
		settings = {
			Blacks2012 = 20,
			Clarity2012 = 0,
			Contrast2012 = -50,
			ConvertToGrayscale = false,
			Dehaze = -10,
			EnableColorAdjustments = true,
			EnableEffects = true,
			Exposure2012 = 0.15,
			GrainAmount = 0,
			GrainFrequency = 50,
			GrainSize = 50,
			Highlights2012 = -15,
			HueAdjustmentAqua = 0,
			HueAdjustmentBlue = 0,
			HueAdjustmentGreen = -30,
			HueAdjustmentMagenta = 30,
			HueAdjustmentOrange = 10,
			HueAdjustmentPurple = 30,
			HueAdjustmentRed = 0,
			HueAdjustmentYellow = -20,
			LuminanceAdjustmentAqua = 0,
			LuminanceAdjustmentBlue = 0,
			LuminanceAdjustmentGreen = 0,
			LuminanceAdjustmentMagenta = 0,
			LuminanceAdjustmentOrange = 0,
			LuminanceAdjustmentPurple = 0,
			LuminanceAdjustmentRed = 0,
			LuminanceAdjustmentYellow = 0,
			PostCropVignetteAmount = 0,
			PostCropVignetteFeather = 50,
			PostCropVignetteHighlightContrast = 0,
			PostCropVignetteMidpoint = 50,
			PostCropVignetteRoundness = 0,
			PostCropVignetteStyle = 1,
			ProcessVersion = "6.7",
			Saturation = 0,
			SaturationAdjustmentAqua = 0,
			SaturationAdjustmentBlue = 0,
			SaturationAdjustmentGreen = 20,
			SaturationAdjustmentMagenta = 0,
			SaturationAdjustmentOrange = 10,
			SaturationAdjustmentPurple = 0,
			SaturationAdjustmentRed = 5,
			SaturationAdjustmentYellow = 10,
			Shadows2012 = 15,
			Vibrance = 0,
			Whites2012 = 0,
		},
		uuid = "C5F08F1B-413F-457F-A179-CBC4842FFE16",
	},
	version = 0,
}
