Lightroom Web General/Natural Plus.lrtemplate
s = {
	id = "2AB2A230-8223-45EE-9C86-2B75AA8A1091",
	internalName = "Natural Plus",
	title = "Natural Plus",
	type = "Develop",
	value = {
		settings = {
			Blacks2012 = -15,
			Clarity2012 = 20,
			Contrast2012 = 30,
			ConvertToGrayscale = false,
			Dehaze = 10,
			EnableColorAdjustments = true,
			EnableEffects = true,
			Exposure2012 = 0,
			GrainAmount = 0,
			GrainFrequency = 50,
			GrainSize = 50,
			Highlights2012 = -20,
			HueAdjustmentAqua = -5,
			HueAdjustmentBlue = -10,
			HueAdjustmentGreen = 0,
			HueAdjustmentMagenta = 0,
			HueAdjustmentOrange = 0,
			HueAdjustmentPurple = 0,
			HueAdjustmentRed = 0,
			HueAdjustmentYellow = 0,
			LuminanceAdjustmentAqua = 15,
			LuminanceAdjustmentBlue = 25,
			LuminanceAdjustmentGreen = 20,
			LuminanceAdjustmentMagenta = 0,
			LuminanceAdjustmentOrange = 0,
			LuminanceAdjustmentPurple = 0,
			LuminanceAdjustmentRed = 0,
			LuminanceAdjustmentYellow = 0,
			PostCropVignetteAmount = 0,
			PostCropVignetteFeather = 50,
			PostCropVignetteHighlightContrast = 0,
			PostCropVignetteMidpoint = 50,
			PostCropVignetteRoundness = 0,
			PostCropVignetteStyle = 1,
			ProcessVersion = "6.7",
			Saturation = 10,
			SaturationAdjustmentAqua = 0,
			SaturationAdjustmentBlue = 0,
			SaturationAdjustmentGreen = 0,
			SaturationAdjustmentMagenta = 0,
			SaturationAdjustmentOrange = 0,
			SaturationAdjustmentPurple = 0,
			SaturationAdjustmentRed = 0,
			SaturationAdjustmentYellow = 0,
			Shadows2012 = 40,
			Vibrance = 30,
			Whites2012 = -10,
		},
		uuid = "D498CEE0-291A-4A21-9C7D-883C18846A60",
	},
	version = 0,
}
